gtk-icons/Papirus-GTK/24x24/actions/kstars_horizon.svg

<?xml version="1.0" encoding="UTF-8" standalone="no"?>
<!-- Created with Inkscape (http://www.inkscape.org/) -->

<svg
   xmlns:dc="http://purl.org/dc/elements/1.1/"
   xmlns:cc="http://creativecommons.org/ns#"
   xmlns:rdf="http://www.w3.org/1999/02/22-rdf-syntax-ns#"
   xmlns:svg="http://www.w3.org/2000/svg"
   xmlns="http://www.w3.org/2000/svg"
   xmlns:sodipodi="http://sodipodi.sourceforge.net/DTD/sodipodi-0.dtd"
   xmlns:inkscape="http://www.inkscape.org/namespaces/inkscape"
   width="24"
   height="24"
   id="svg2"
   version="1.1"
   inkscape:version="0.91 r13725"
   viewBox="0 0 24 24"
   sodipodi:docname="kstars_horizon.svg">
  <defs
     id="defs4">
    <style
       type="text/css"
       id="current-color-scheme">
      .ColorScheme-Text {
        color:#4d4d4d;
      }
      .ColorScheme-Background {
        color:#eff0f1;
      }
      .ColorScheme-Highlight {
        color:#3daee9;
      }
      .ColorScheme-ViewText {
        color:#31363b;
      }
      .ColorScheme-ViewBackground {
        color:#fcfcfc;
      }
      .ColorScheme-ViewHover {
        color:#93cee9;
      }
      .ColorScheme-ViewFocus{
        color:#3daee9;
      }
      .ColorScheme-ButtonText {
        color:#31363b;
      }
      .ColorScheme-ButtonBackground {
        color:#eff0f1;
      }
      .ColorScheme-ButtonHover {
        color:#93cee9;
      }
      .ColorScheme-ButtonFocus{
        color:#3daee9;
      }
      </style>
  </defs>
  <sodipodi:namedview
     id="base"
     pagecolor="#ffffff"
     bordercolor="#666666"
     borderopacity="1.0"
     inkscape:pageopacity="0.0"
     inkscape:pageshadow="2"
     inkscape:zoom="27.272728"
     inkscape:cx="7.2829205"
     inkscape:cy="10.871306"
     inkscape:document-units="px"
     inkscape:current-layer="layer1"
     showgrid="false"
     inkscape:showpageshadow="false"
     units="px"
     inkscape:window-width="1600"
     inkscape:window-height="847"
     inkscape:window-x="0"
     inkscape:window-y="30"
     inkscape:window-maximized="1"
     inkscape:object-nodes="true"
     inkscape:snap-bbox="true"
     showguides="false">
    <inkscape:grid
       type="xygrid"
       id="grid4120" />
    <sodipodi:guide
       position="2,20.000017"
       orientation="18,0"
       id="guide4126" />
    <sodipodi:guide
       position="2,2.0000174"
       orientation="0,18"
       id="guide4128" />
    <sodipodi:guide
       position="20,2.0000174"
       orientation="-18,0"
       id="guide4130" />
    <sodipodi:guide
       position="20,20.000017"
       orientation="0,-18"
       id="guide4132" />
    <sodipodi:guide
       position="3,19.000017"
       orientation="16,0"
       id="guide4134" />
    <sodipodi:guide
       position="3,3.0000174"
       orientation="0,16"
       id="guide4136" />
    <sodipodi:guide
       position="19,3.0000174"
       orientation="-16,0"
       id="guide4138" />
    <sodipodi:guide
       position="19,19.000017"
       orientation="0,-16"
       id="guide4140" />
    <sodipodi:guide
       position="19,13.000017"
       orientation="-6,0"
       id="guide4199" />
    <sodipodi:guide
       position="19,19.000017"
       orientation="0,-6.0000172"
       id="guide4201" />
  </sodipodi:namedview>
  <metadata
     id="metadata7">
    <rdf:RDF>
      <cc:Work
         rdf:about="">
        <dc:format>image/svg+xml</dc:format>
        <dc:type
           rdf:resource="http://purl.org/dc/dcmitype/StillImage" />
        <dc:title></dc:title>
      </cc:Work>
    </rdf:RDF>
  </metadata>
  <g
     inkscape:label="Capa 1"
     inkscape:groupmode="layer"
     id="layer1"
     transform="translate(0,-1028.3622)">
    <g
       id="g4162"
       transform="translate(1,-1)">
      <path
         id="path4165"
         transform="translate(0,1030.3622)"
         d="m 3.0351562,10.263672 c -0.0022,0.02338 -0.00191,0.04691 -0.00391,0.07031 a 8,8 0 0 1 0.00781,-0.05859 c -9.666e-4,-0.0039 -0.00298,-0.0078 -0.00391,-0.01172 z M 4.015625,11.443359 A 7,7 0 0 0 11,18 7,7 0 0 0 17.976562,11.453125 C 16.603446,12.378431 13.987216,12.999946 11,13 8.0030182,12.999411 5.3838443,12.372731 4.015625,11.443359 Z M 18.964844,11.6875 a 8,8 0 0 1 -0.05469,0.453125 c 0.02153,-0.150395 0.04164,-0.300152 0.05469,-0.453125 z M 3.0410156,11.818359 c 0.081936,0.80681 0.2842741,1.577092 0.5878906,2.294922 A 8,8 0 0 1 3.0410156,11.818359 Z m 15.8203124,0.632813 a 8,8 0 0 1 -0.105469,0.482422 c 0.03963,-0.159325 0.07555,-0.319483 0.105469,-0.482422 z m -0.183594,0.783203 a 8,8 0 0 1 -0.152343,0.458984 c 0.05427,-0.151548 0.107112,-0.303363 0.152343,-0.458984 z m -0.259765,0.75 a 8,8 0 0 1 -0.208985,0.466797 c 0.07373,-0.153665 0.144971,-0.307885 0.208985,-0.466797 z M 3.6308594,14.115234 c 0.1039251,0.245482 0.21869,0.484571 0.3457031,0.716797 A 8,8 0 0 1 3.6308594,14.115234 Z M 18.09375,14.689453 a 8,8 0 0 1 -0.240234,0.421875 c 0.0833,-0.138531 0.16525,-0.278049 0.240234,-0.421875 z M 4.0800781,15 c 0.095218,0.164315 0.1905673,0.329683 0.296875,0.486328 A 8,8 0 0 1 4.0800781,15 Z m 13.5976559,0.398438 a 8,8 0 0 1 -0.232422,0.326171 c 0.07915,-0.107781 0.158637,-0.214373 0.232422,-0.326171 z m -13.0624996,0.40625 c 0.078494,0.104126 0.1529515,0.210466 0.2363281,0.310546 A 8,8 0 0 1 4.6152344,15.804688 Z M 17.216797,16.03125 a 8,8 0 0 1 -0.269531,0.304688 c 0.09059,-0.10088 0.184096,-0.199278 0.269531,-0.304688 z M 5.1210938,16.412109 c 0.085777,0.09312 0.1697061,0.188391 0.2597656,0.277344 A 8,8 0 0 1 5.1210938,16.412109 Z m 11.5683592,0.207032 a 8,8 0 0 1 -0.277344,0.259765 c 0.09312,-0.08578 0.188391,-0.169706 0.277344,-0.259765 z M 5.6640625,16.947266 c 0.1008795,0.09059 0.1992779,0.184096 0.3046875,0.269531 A 8,8 0 0 1 5.6640625,16.947266 Z m 10.4511715,0.201172 a 8,8 0 0 1 -0.310546,0.236328 c 0.104126,-0.0785 0.210466,-0.152952 0.310546,-0.236328 z m -9.8398434,0.296874 c 0.1077815,0.07915 0.2143735,0.158637 0.3261719,0.232422 A 8,8 0 0 1 6.2753906,17.445312 Z m 9.2109374,0.177735 A 8,8 0 0 1 15,17.919922 c 0.164315,-0.09522 0.329683,-0.190567 0.486328,-0.296875 z m -8.5976561,0.230469 c 0.1385316,0.0833 0.2780492,0.16525 0.421875,0.240234 a 8,8 0 0 1 -0.421875,-0.240234 z m 7.9433591,0.169922 a 8,8 0 0 1 -0.716797,0.345703 c 0.245482,-0.103925 0.484571,-0.21869 0.716797,-0.345703 z m -7.2832029,0.185546 c 0.1536647,0.07373 0.3078847,0.144971 0.4667969,0.208985 A 8,8 0 0 1 7.5488281,18.208984 Z m 6.5644529,0.16211 a 8,8 0 0 1 -2.294922,0.58789 c 0.80681,-0.08194 1.577092,-0.284274 2.294922,-0.58789 z m -5.8066404,0.154297 c 0.1515485,0.05427 0.3033639,0.107112 0.4589844,0.152343 A 8,8 0 0 1 8.3066406,18.525391 Z m 0.7597656,0.230468 c 0.1593245,0.03963 0.3194826,0.07555 0.4824219,0.105469 A 8,8 0 0 1 9.0664062,18.755859 Z m 0.7929688,0.154297 c 0.150395,0.02153 0.300152,0.04164 0.453125,0.05469 a 8,8 0 0 1 -0.453125,-0.05469 z"
         style="opacity:0.3;fill:#000000;fill-opacity:1;stroke:none"
         inkscape:connector-curvature="0" />
      <path
         id="path4158"
         transform="translate(0,1030.3622)"
         d="m 11,3 a 8,8 0 0 0 -8,8 8,8 0 0 0 8,8 8,8 0 0 0 8,-8 8,8 0 0 0 -8,-8 z m 0,1 a 7,7 0 0 1 7,7 7,7 0 0 1 -7,7 7,7 0 0 1 -7,-7 7,7 0 0 1 7,-7 z"
         style="opacity:0.5;fill:#000000;fill-opacity:1;stroke:none"
         inkscape:connector-curvature="0" />
    </g>
  </g>
</svg>

<?xml version="1.0" encoding="UTF-8" standalone="no"?>
<!-- Created with Inkscape (http://www.inkscape.org/) -->
<svg id="svg2" xmlns:rdf="http://www.w3.org/1999/02/22-rdf-syntax-ns#" xmlns="http://www.w3.org/2000/svg" height="24" viewBox="0 0 24 24" width="24" version="1.1" xmlns:cc="http://creativecommons.org/ns#" xmlns:dc="http://purl.org/dc/elements/1.1/">
 <defs id="defs4">
  <style id="current-color-scheme" type="text/css">.ColorScheme-Text {
        color:#4d4d4d;
      }
      .ColorScheme-Background {
        color:#eff0f1;
      }
      .ColorScheme-Highlight {
        color:#3daee9;
      }
      .ColorScheme-ViewText {
        color:#31363b;
      }
      .ColorScheme-ViewBackground {
        color:#fcfcfc;
      }
      .ColorScheme-ViewHover {
        color:#93cee9;
      }
      .ColorScheme-ViewFocus{
        color:#3daee9;
      }
      .ColorScheme-ButtonText {
        color:#31363b;
      }
      .ColorScheme-ButtonBackground {
        color:#eff0f1;
      }
      .ColorScheme-ButtonHover {
        color:#93cee9;
      }
      .ColorScheme-ButtonFocus{
        color:#3daee9;
      }</style>
 </defs>
 <metadata id="metadata7">
  <rdf:RDF>
   <cc:Work rdf:about="">
    <dc:format>image/svg+xml</dc:format>
    <dc:type rdf:resource="http://purl.org/dc/dcmitype/StillImage"/>
    <dc:title/>
   </cc:Work>
  </rdf:RDF>
 </metadata>
 <g id="layer1" transform="translate(0 -1028.4)">
  <g id="g4162" transform="translate(1,-1)">
   <path id="path4165" opacity=".3" d="m3.0352 10.264c-0.0022 0.02338-0.00191 0.04691-0.00391 0.07031a8 8 0 0 1 0.00781 -0.05859c-0.0009666-0.0039-0.00298-0.0078-0.00391-0.01172zm0.9804 1.179a7 7 0 0 0 6.9844 6.557 7 7 0 0 0 6.977 -6.547c-1.374 0.925-3.99 1.547-6.977 1.547-2.997-0.001-5.6162-0.627-6.9844-1.557zm14.949 0.245a8 8 0 0 1 -0.05469 0.45312c0.02153-0.1504 0.04164-0.30015 0.05469-0.45312zm-15.924 0.13c0.081936 0.80681 0.28427 1.5771 0.58789 2.2949a8 8 0 0 1 -0.5879 -2.295zm15.82 0.63281a8 8 0 0 1 -0.10547 0.48242c0.03963-0.15932 0.07555-0.31948 0.10547-0.48242zm-0.18359 0.7832a8 8 0 0 1 -0.15234 0.45898c0.05427-0.15155 0.10711-0.30336 0.15234-0.45898zm-0.25976 0.75a8 8 0 0 1 -0.20898 0.4668c0.07373-0.15366 0.14497-0.30788 0.20898-0.4668zm-14.786 0.131c0.10393 0.24548 0.21869 0.48457 0.3457 0.7168a8 8 0 0 1 -0.3457 -0.717zm14.463 0.574a8 8 0 0 1 -0.24023 0.42188c0.0833-0.13853 0.16525-0.27805 0.24023-0.42188zm-14.014 0.311c0.095218 0.16432 0.19057 0.32968 0.29688 0.48633a8 8 0 0 1 -0.2969 -0.486zm13.598 0.39844a8 8 0 0 1 -0.23242 0.32617c0.07915-0.10778 0.15864-0.21437 0.23242-0.32617zm-13.062 0.40625c0.078494 0.10413 0.15295 0.21047 0.23633 0.31055a8 8 0 0 1 -0.2371 -0.31zm12.601 0.227a8 8 0 0 1 -0.26953 0.30469c0.09059-0.10088 0.1841-0.19928 0.26953-0.30469zm-12.096 0.381c0.085777 0.09312 0.16971 0.18839 0.25977 0.27734a8 8 0 0 1 -0.2598 -0.277zm11.568 0.20703a8 8 0 0 1 -0.27734 0.25976c0.09312-0.08578 0.18839-0.16971 0.27734-0.25976zm-11.025 0.328c0.10088 0.09059 0.19928 0.1841 0.30469 0.26953a8 8 0 0 1 -0.3047 -0.27zm10.451 0.20117a8 8 0 0 1 -0.31055 0.23633c0.10413-0.0785 0.21047-0.15295 0.31055-0.23633zm-9.8398 0.29687c0.10778 0.07915 0.21437 0.15864 0.32617 0.23242a8 8 0 0 1 -0.326 -0.232zm9.2109 0.17774a8 8 0 0 1 -0.486 0.297c0.16432-0.09522 0.32968-0.19057 0.48633-0.29688zm-8.5977 0.23047c0.13853 0.0833 0.27805 0.16525 0.42188 0.24023a8 8 0 0 1 -0.42188 -0.24023zm7.9434 0.16992a8 8 0 0 1 -0.7168 0.3457c0.24548-0.10392 0.48457-0.21869 0.7168-0.3457zm-7.2832 0.18555c0.15366 0.07373 0.30788 0.14497 0.4668 0.20898a8 8 0 0 1 -0.4668 -0.209zm6.5645 0.16211a8 8 0 0 1 -2.2949 0.58789c0.80681-0.08194 1.5771-0.28427 2.2949-0.58789zm-5.8066 0.1543c0.15155 0.05427 0.30336 0.10711 0.45898 0.15234a8 8 0 0 1 -0.4588 -0.152zm0.75977 0.23047c0.15932 0.03963 0.31948 0.07555 0.48242 0.10547a8 8 0 0 1 -0.4822 -0.104zm0.79297 0.1543c0.1504 0.02153 0.30015 0.04164 0.45312 0.05469a8 8 0 0 1 -0.45312 -0.05469z" transform="translate(0 1030.4)"/>
   <path id="path4158" opacity=".5" d="m11 3a8 8 0 0 0 -8 8 8 8 0 0 0 8 8 8 8 0 0 0 8 -8 8 8 0 0 0 -8 -8zm0 1a7 7 0 0 1 7 7 7 7 0 0 1 -7 7 7 7 0 0 1 -7 -7 7 7 0 0 1 7 -7z" transform="translate(0 1030.4)"/>
  </g>
 </g>
</svg>
